X:88
M:C
L:1/8
Q:1/4=70
K:G
c|B>cB>A G>FE>^G|E>AA>^G B3c|B>cB>A G>FE>^G|E<A B>^G A2A:|
c>de>f g>fe>g|d>cc>B B2 B/A/B/d/|e>AB>A G>FE>^G|E<A B>G A2A||

